X: 24507
T: Lucy Farr's
R: jig
M: 6/8
K: Dmixolydian
DED DEG|ABG ABd|egd edB|BAG AGE|
DED DEG|ABG ABd|egd BGE|1 GED D2E:|2 GED D2g||
|:~a3 aba|~g3 edB|deg edB|deg deg|
~a3 aba|~g3 edB|ged BGE|1 DED D2g:|2 DED D2E||

